X:1
T: The Maid In The Moon
N:
C:Tune is "All in a Garden Green"
S:
A:
O:
R:
M:4/4
K:G
I:speed 220
%W: A1
% voice 1 (1 lines, 31 notes)
K:G
M:4/4
L:1/16
d8 d4 d4 |B6 c2 d4 d4 |e4 d4 c4 B4 |A12 B4 |c6 d2 e2 f2 g4 |G6 A2 B2 c2 d4 |c4 B4 A2 G2 A2 B2 |G12 z4 |
%W: A2
% voice 1 (1 lines, 31 notes)
d8 d4 d4 |B6 c2 d4 d4 |e4 d4 c4 B4 |A12 B4 |c6 d2 e2 f2 g4 |G6 A2 B2 c2 d4 |c4 B4 A2 G2 A2 B2 |G12 z4 |
%W: B1
% voice 1 (1 lines, 21 notes)
d4 d2 d2 d4 d4 |e4 f4 g8 |B4 B2 B2 B4 G4 |A4 B4 c8 |B6 A2 G2 A2 B4 |
%W:
% voice 1 (1 lines, 22 notes)
c6 B2 A2 B2 c4 |d6 c2 B2 c2 d4 |e6 d2 c2 d2 B2 c2 |A4 G4 G4 F4 |G12 z4 |
%W: B2
% voice 1 (1 lines, 21 notes)
d4 d2 d2 d4 d4 |e4 f4 g8 |B4 B2 B2 B4 G4 |A4 B4 c8 |B6 A2 G2 A2 B4 |
%W:
% voice 1 (1 lines, 22 notes)
c6 B2 A2 B2 c4 |d6 c2 B2 c2 d4 |e6 d2 c2 d2 B2 c2 |A4 G4 G4 F4 |G12 z4 ||
